X: 42619
T: Whinny Hills Of Leitrim, The
R: slip jig
M: 9/8
K: Dmajor
|:FAB FAB AFD|FAB FAB d2A|FAB FAB AFD|fgf edc B2A:|
|:~f3 efe d2e|~f3 def gfe|~f3 efe dBA|BAF DFA B2A:|

